!!!COM: John Bull
!!!OPR: Telluris ingens conditor
!!!OTL: [verse 3: Aeterne rerum]
!!!YOR: Musica Britannica, Vol. 14; 2nd rev. ed.;
!!!YOR: John Bull, Keyboard Music 1.
!!!YOR: London
!!!YOR: John Steele and Francis Cameron (editors)
!!!YOR: p.135
!!!YOO: Stainer and Bell
!!!YOY: 1967
**kern	**kern	**kern	**kern	**kern
*CF	*guida	*conseq	*freeV	*CFbackground
*k[b-]	*k[b-]	*k[b-]	*k[b-]	*k[b-]
*d:	*d:	*d:	*d:	*d:
*M4/4	*M4/4	*M4/4	*M4/4	*M4/4
2f	4r	2r	2r	2f
.	4A	.	.	.
=1	=1	=1	=1	=1
2f	8B-	4r	1r	2f
.	8c	.	.	.
.	4.d	4dd	.	.
2g	.	8ee	.	2g
.	16c	8ff	.	.
.	16d	.	.	.
.	8c	[4gg	.	.
.	8B-	.	.	.
=2	=2	=2	=2	=2
2a	2.d	8gg]	1r	2a
.	.	16ff	.	.
.	.	16gg	.	.
.	.	8ff	.	.
.	.	8ee	.	.
[2b-	.	[2gg	.	2b-
.	4c	.	.	.
=3	=3	=3	=3	=3
4b-]	8B-	4gg]	2r	2a
.	8G	.	.	.
4a	8A	4ff	.	.
.	8B-	.	.	.
2g	2c	8ee	2C	2g
.	.	8cc	.	.
.	.	8dd	.	.
.	.	8ee	.	.
=4	=4	=4	=4	=4
2a	4r	2ff	4.F	2a
.	4c	.	.	.
.	.	.	8E	.
2a	4d	4r	4D	2a
.	4d	4ff	4F	.
=5	=5	=5	=5	=5
2g	2e	4gg	2E	2g
.	.	4gg	.	.
2cc	4.e	2aa	2A	2cc
.	8c	.	.	.
=6	=6	=6	=6	=6
4r	8d	4.aa	4F	2cc
.	8e	.	.	.
4cc	2f	.	4A	.
.	.	8ff	.	.
4b-	.	8gg	2G	2g
.	.	8aa	.	.
4g	[4e	[4bb-	.	.
=7	=7	=7	=7	=7
2a	8e]	4bb-]	4F	2a
.	8d	.	.	.
.	4d	4.aa	4D	.
2b-	4r	.	8G	2g
.	.	8gg	8A	.
.	[4g	4gg	8B-	.
.	.	.	8c	.
=8	=8	=8	=8	=8
2a	4g]	4r	4d	2a
.	4f	2ccc	4A	.
2g	4e	.	4c	2g
.	[4d	4bb-	4G	.
=9	=9	=9	=9	=9
2a	8d]	4aa	4F	2a
.	8e	.	.	.
.	4c	4.gg	4E	.
2a	2d	.	2D	2a
.	.	8aa	.	.
.	.	4ff#	.	.
=10	=10	=10	=10	=10
2.g	4r	2gg	4E	2g
.	8G	.	4C	.
.	8A	.	.	.
.	8B-	4r	4G	2a
.	8c	.	.	.
4a	8A	8cc	4F	.
.	8B-	8dd	.	.
=11	=11	=11	=11	=11
2g	2c	8ee	4r	2g
.	.	8ff	.	.
.	.	8dd	4C	.
.	.	8ee	.	.
2f	4r	2ff	2D	2f
.	8F	.	.	.
.	8G	.	.	.
=12	=12	=12	=12	=12
2e	4A	4r	4C	2e
.	4G	8b	4E	.
.	.	8cc	.	.
2f	4B-	4dd	4D	2f
.	4A	4cc	4F	.
=13	=13	=13	=13	=13
2g	4c	4ee	4E	2g
.	4B-	4dd	4G	.
2a	4.d	4ff	4D	2a
.	.	4ee	4A	.
.	8c	.	.	.
=14	=14	=14	=14	=14
4g	8B	4.gg	4E	2g
.	8A	.	.	.
4a	2A	.	4r	.
.	.	8ff	.	.
4f	.	8ee	2r	2g
.	.	8dd	.	.
4g	4G	[4dd	.	.
=15	=15	=15	=15	=15
2e	4A	4dd]	4r	2e
.	4c	4cc	4AA	.
2f	8B-	4dd	2D	2f
.	8A	.	.	.
.	[4A	4dd	.	.
=16	=16	=16	=16	=16
4g	4A]	8ee	2BB-	2g
.	.	8dd	.	.
8d	4G	2dd	.	.
8e	.	.	.	.
8f	[2A	.	2AA	2e
8g	.	.	.	.
4e	.	4cc#	.	.
=17	=17	=17	=17	=17
1f#	1A]	1dd	1D	1f#
==	==	==	==	==
*-	*-	*-	*-	*-
!!!COA: Thomas Tallis
!!!CDT: ~1562-1628/3/12/|13
!!!CNT: English
!!!YEP: David Huron and Denis Collins
!!!YEN: Canada
!!!AIN: cemba; clavi; klav; organ
!!!AGN: keyboard
!!!AST: polyphony
!!!RDT: 1995 April 17
!!!YED: 1995 August 31
!!!AFR: cantus firmus canon
!!!AMT: simple quadruple
!!!EEV: 1.0
